build/images/icons/send.svg

<svg width="32" height="32" viewBox="0 0 32 32" fill="none" xmlns="http://www.w3.org/2000/svg">
<path d="M26.667 5.33398H5.33366C3.86699 5.33398 2.66699 6.53398 2.66699 8.00065V24.0007C2.66699 25.4673 3.86699 26.6673 5.33366 26.6673H17.3337V24.0007H5.33366V10.6673L16.0003 17.334L26.667 10.6673V17.334H29.3337V8.00065C29.3337 6.53398 28.1337 5.33398 26.667 5.33398ZM16.0003 14.6673L5.33366 8.00065H26.667L16.0003 14.6673ZM25.3337 20.0007L30.667 25.334L25.3337 30.6673V26.6673H20.0003V24.0007H25.3337V20.0007Z"/>
</svg>

<svg width="32" height="32" fill="none" xmlns="http://www.w3.org/2000/svg"><path d="M26.667 5.334H5.334a2.675 2.675 0 00-2.667 2.667v16c0 1.466 1.2 2.666 2.667 2.666h12v-2.666h-12V10.667L16 17.334l10.667-6.667v6.667h2.667V8.001c0-1.467-1.2-2.667-2.667-2.667zM16 14.667L5.334 8.001h21.333L16 14.667zm9.334 5.334l5.333 5.333-5.333 5.333v-4H20v-2.666h5.334v-4z"/></svg>
